svgs/solid/pie.svg

<svg xmlns="http://www.w3.org/2000/svg" viewBox="0 0 576 512"><!-- Font Awesome Pro 5.15.3 by @fontawesome - https://fontawesome.com License - https://fontawesome.com/license (Commercial License) --><path d="M458.78 304c-10.12 6.94-36.19 32-85.25 32s-75.15-25-85.26-32h-.08c-7.33 5-35.19 32-85.28 32-49.13 0-75.17-25-85.34-32h-.22c-8.34 5.7-26.69 22.63-59.6 29.2l31 92.88A32 32 0 0 0 119.07 448h337.87a32 32 0 0 0 30.36-21.88l31-92.88c-33.11-6.62-52.47-24.4-59.46-29.2zM544 240c-6.44 0-10.37-1.2-14.47-3.52C494.93 136.17 400.07 64 288 64S81 136.21 46.45 236.55c-4.07 2.28-8 3.45-14.45 3.45a32 32 0 0 0 0 64c32 0 50-13.47 61.92-22.39 9.08-6.8 12.83-9.61 23.53-9.61s14.47 2.81 23.55 9.61c11.91 8.92 29.89 22.39 61.91 22.39s50-13.48 61.88-22.41c9-6.78 12.8-9.59 23.45-9.59s14.39 2.81 23.44 9.59c11.89 8.92 29.86 22.41 61.86 22.41s49.95-13.48 61.84-22.41c9.05-6.78 12.8-9.59 23.44-9.59s14.34 2.81 23.38 9.58C494.06 290.52 512 304 544 304a32 32 0 0 0 0-64zm-337.69-88.84l-16 32c-9.44 18.83-38.17 4.79-28.62-14.31l16-32c9.53-18.85 38.09-4.63 28.62 14.31zM304 176c0 21.17-32 21.18-32 0v-32c0-21.17 32-21.18 32 0zm81.69 7.16l-16-32c-9.48-18.95 19.13-33.19 28.62-14.31l16 32c9.53 19.05-19.17 33.15-28.62 14.31z"/></svg>

<svg xmlns="http://www.w3.org/2000/svg" viewBox="0 0 576 512"><!--! Font Awesome Pro 6.0.0-alpha3 by @fontawesome - https://fontawesome.com License - https://fontawesome.com/license (Commercial License) --><path d="M544 240c-6.5 0-10.38-1.25-14.5-3.5C494.9 136.1 400.1 64 288 64S81 136.3 46.5 236.5C42.38 238.9 38.5 240 32 240c-17.62 0-32 14.38-32 32s14.38 32 32 32c32 0 49.1-13.5 61.88-22.38C103 274.8 106.8 272 117.5 272c10.62 0 14.38 2.75 23.5 9.625C152.9 290.5 170.9 304 202.9 304s50-13.5 61.88-22.38C273.8 274.8 277.6 272 288.3 272s14.38 2.75 23.38 9.625C323.6 290.5 341.5 304 373.5 304s50-13.5 61.88-22.38C444.4 274.8 448.1 272 458.9 272c10.62 0 14.25 2.75 23.38 9.625C493.1 290.5 512 304 544 304c17.62 0 32-14.38 32-32S561.6 240 544 240zM206.3 151.1l-16 32C180.9 202 152.1 187.1 161.7 168.9l16-32C187.2 117.1 215.8 132.3 206.3 151.1zM304 176c0 21.12-32 21.12-32 0v-32c0-21.12 32-21.12 32 0V176zM385.7 183.1l-16-32c-9.5-18.88 19.19-33.14 28.56-14.27l16 32C423.9 187.9 395.1 202 385.7 183.1zM458.9 304c-10.12 7-36.25 32-85.38 32c-49 0-75.13-25-85.25-32c-7.375 5-35.25 32-85.38 32c-49.13 0-75.13-25-85.25-32c-8.375 5.75-26.1 22.62-59.87 29.25l31 92.88C93.13 439.1 105.3 448 119.1 448H457c13.75 0 26-8.875 30.25-21.88l31-92.88C485.3 326.6 465.9 308.9 458.9 304z"/></svg>
